X:1
T:Shreds and Patches
C:John Kirkpatrick
M:3/2
L:1/8
S:BryanCreer:aol.com tradtunes 2010-12-15
K:D
|: d2 d>B A2 A>G F>GA>F | d2 d>B A>BA>F G2 E2  |
   d2 d>B A2 A>G F>GA>F | G>AB>G F>GA>F G2 E2 :|
|: D2 D2  D2 D2  F>GA>F | D2  D2 D2 D2  E>FG>E |
   D2 D2  D2 D2  D>EF>D | G>AB>G F>GA>F G2 E2 :|
